X: 792
T: Pinetop Breakdown
B: jims roots
M:2/4
L:1/16
Q: 1/4=100
K:A
V:1 
cB | "A"A2AB cABc | ABce fecB | A2AB cBAc | "E7"BABc dcBc |
"A"A2AB cABc | ABce fecA | "E7"BABc dcBc | "A"A2[Ae][Ae] [A2e] :|
|: AB | "D"dcde fgaf | "A"efed cBAc | "E7"BABc dcBc | "A"ABce fecA |
"D"dcde fgaf | "A"efed cBAc | "E7"BABc dcBc | "A"A2[Ae][Ae] [A2e] :|
% abcbook-tune_id 6298c279fdb38189be3f59f8


% abcbook-boost 0
% abcbook-tablature 
% abcbook-transpose 
% abcbook-lastupdated 1654178426525
% abcbook-soundfonts 
% abcbook-repeats 1


